X:1
T:9 Advent-Motetten
T: Josef Rheinberger
T:Neun Advent-Motetten
T:für gemischten Chor, Op. 176
T:CPDL - Creative Commons Attribution Non Commercial 3.0
T:CPDL - Creative Commons Attribution Non Commercial 3.0
T:CPDL - Creative Commons Attribution Non Commercial 3.0
T:CPDL - Creative Commons Attribution Non Commercial 3.0
T:CPDL - Creative Commons Attribution Non Commercial 3.0
T:CPDL - Creative Commons Attribution Non Commercial 3.0
T:CPDL - Creative Commons Attribution Non Commercial 3.0
T:CPDL - Creative Commons Attribution Non Commercial 3.0
T:CPDL - Creative Commons Attribution Non Commercial 3.0
T:CPDL - Creative Commons Attribution Non Commercial 3.0
T:CPDL - Creative Commons Attribution Non Commercial 3.0
T:CPDL - Creative Commons Attribution Non Commercial 3.0
T:CPDL - Creative Commons Attribution Non Commercial 3.0
T:CPDL - Creative Commons Attribution Non Commercial 3.0
T:CPDL - Creative Commons Attribution Non Commercial 3.0
T:CPDL - Creative Commons Attribution Non Commercial 3.0
T:CPDL - Creative Commons Attribution Non Commercial 3.0
T:CPDL - Creative Commons Attribution Non Commercial 3.0
T:CPDL - Creative Commons Attribution Non Commercial 3.0
T:CPDL - Creative Commons Attribution Non Commercial 3.0
T:CPDL - Creative Commons Attribution Non Commercial 3.0
T:CPDL - Creative Commons Attribution Non Commercial 3.0
T:CPDL - Creative Commons Attribution Non Commercial 3.0
T:CPDL - Creative Commons Attribution Non Commercial 3.0
T:CPDL - Creative Commons Attribution Non Commercial 3.0
T:CPDL - Creative Commons Attribution Non Commercial 3.0
T:CPDL - Creative Commons Attribution Non Commercial 3.0
T:CPDL - Creative Commons Attribution Non Commercial 3.0
T:CPDL - Creative Commons Attribution Non Commercial 3.0
T:CPDL - Creative Commons Attribution Non Commercial 3.0
T:CPDL - Creative Commons Attribution Non Commercial 3.0
T:CPDL - Creative Commons Attribution Non Commercial 3.0
T:CPDL - Creative Commons Attribution Non Commercial 3.0
T:CPDL - Creative Commons Attribution Non Commercial 3.0
T:CPDL - Creative Commons Attribution Non Commercial 3.0
T:CPDL - Creative Commons Attribution Non Commercial 3.0
T:CPDL - Creative Commons Attribution Non Commercial 3.0
C:Jos. Rheinberger
Z:CPDL - Creative Commons Attribution Non Commercial 3.0
%%score [ 1 2 3 4 ]
L:1/8
Q:1/4=80
M:4/4
K:Ab
V:1 treble nm="Sopran"
V:2 treble nm="Alt"
V:3 treble-8 nm="Tenor"
V:4 bass nm="Bass"
V:1
"^Moderato" z2 | z8 | z4 z2"^dolce"!p! c2 | e3 d c2 c2 | c2 B2 A4- | A2 G2 d4- | (d2 cf) e2 z2 | %7
w: ||Ro-|ra- te coe- li|de- su- per,|_ ro- ra-|* * * te,|
 z2!f! c2 e3 e | e2 d2 c2 fe | dc!p! BA (G2 d2) | c6 z!f! E | E2 EA A2 Ad | d4 c2 z G | %13
w: ro- ra- te|coe- li de- su- *|per, * ro- * ra- *|te; et|nu- bes * plu- ant *|jus- tum, et|
 G2 Gc c2 cf | f4 B4 |!p! c2 ed c2 B2 | A4 B2"^cresc." =B2 | c2 A2 c2 c2 | e2 c2 e2!f! g2- | %19
w: nu- bes * plu- ant *|jus- tum;|a- pe- ri- a- tur|ter- ra et|ger- mi- net, et|ger- mi- net Sal-|
 g2 fe (=de f2) | e4 z2!p! e2 | (!>!=A4 d2) c2 | .B2 .F2 z2 d2 | !>!G3 G c2 B2 | .A2 .E2 z2!p! A2 | %25
w: * va- * to- * *|rem, a-|per- * i-|a- tur, a-|per- i- a- tur|ter- ra et|
 A3 A A4 |!<(! =d3 d d4!<)! |!f! (a4 gf) e=d | f4 e4- |"^rit.   -   -   -" e2 z2 z2!pp! c2 | %30
w: ger- mi- net,|ger- mi- net|Sal- * * va- *|to- rem.|* Ro-|
"^a tempo" e3 d c2 c2 | c2 B2 A4- | A2 G2 d4- | (d2 cf) e2 z!f! c | f2 c2 f4 | =e4!p! _e4- | %36
w: ra- te coe- li|de- su- per,|* ro- ra-|* * * te, et|nu- bes plu-|ant, nu-|
 e2 dc Bc d2 | .c2 .A2 z2!f! c2 | f2 c2 f4 | =e4!p! _e4- | e2 dc BA G2 | .A2 .E2 z2 E2 | %42
w: * bes * plu- * ant|jus- tum, a-|pe- ri- a-|tur, a-|* per- i- a- * tur|ter- ra, et|
 A3 E"^cresc." E2 c2 | d3 A A2!f! _g2- | (g2 f4) e2 | (d2 cB A2 B2) | !fermata!c6 |] %47
w: ger- mi- net, et|ger- mi- net Sal-|* * va-|to- * * * *|rem.|
[K:F]!p![Q:1/4=69]"^Moderato" A>A | A2 A2 A2!<(! A>A!<)! |!>(! d2 G2!>)! z2 GA | %50
w: U- ni-|ver- si, qui te ex-|pec- tant non _|
!<(! B3 B B2 B2!<)! | e>A A2 z2!f! AA | f2 ed cGAB | B2 A2 z Acd | E2 !>!A4 GA | G3 F F2 z2 | z8 | %57
w: con- fun- den- tur,|Do- mi- ne, vi- as|tu- as * no- * tas fac|mi- hi et se- mi-|tas tu- as e-|do- ce me.||
!mf! c2 c>c cd _e2- | e2 d>^c d4 |!f! d2 d>d d=e =f2- | f2 e>^d e4 | z4 z2 z!p! A | A2 cB A3 A | %63
w: Os- ten- de no- * bis|_ Do- mi- ne,|os- ten- de no- * bis|_ Do- mi- ne|mi-|se- ri- * cor- di-|
 D2 (d4 e2) | ^c2 z!f! e !tenuto!f2 !tenuto!c2 | d2 A2 B2 ^F2 | (G2 _ed cB) AG |!p! F2 AD =E4 | %68
w: am tu- *|am, et sa- lu-|ta- re, sa- lu-|ta- * * * * re _|tu- um da no-|
 D2 z2 z2!f! d>A | B2 A2 z2 d>A | cB A2 z2 A>c | (f2 ed cGAB) | A4 z2 f>c | d2 c2 z2 A>F | %74
w: bis. Al- le-|lu- ja, al- le-|lu- * ja, al- le-|lu- * * * * * *|ja, al- le-|lu- ja, al- le-|
 c2 _e4 d>d | d2 =f4 |!ff! e>e | (A2 a2 ^g2 =g2 | ^f2 =f2) e2 (A2 | d2 g3 ^f) ed | %80
w: lu- ja, al- le-|lu- ja,|al- le-|lu- * * *|* * ja, al-|* * * le- *|
[Q:1/4=50]"^Largo" (^c2 dc =B2 c2) | !fermata!d6 |][K:A][M:3/4][Q:1/4=72]"^Andante" z2 | z6 | z6 | %85
w: lu- * * * *|ja.||||
 z6 | z2 z2"^dolce"!p! A2 | F4 E2 | (A2 B2)!<(! c2 | d2!<)! f2!>(! e2 | d2 c2!>)!!p! !>!e2- | %91
w: |Ad|te le-|va- * vi|a- ni- mam|me- am, De-|
 (e2 A2) B2 | A2 G>B !>!e2- | e4 cA | .c2 .B2 z2 | A4 AB | .G2 .E2 z2 |!f! e2 e2 de | .=f2 .e2 z2 | %99
w: * * us|me- us, in te|* con- *|fi- do,|non e- ru-|bes- cam,|non e- ru- *|bes- cam;|
 z6 | z6 |!p! e2 =c2 =G2 | !>!A3 A A2 | =G6- | G2!<(! =GA B=c!<)! |!f! e2 =c4- | c2 =c2 cc | %107
w: ||ne- que ir-|ri- de- ant|me|_ in- i- mi- ci|me- i,|_ ne- que ir-|
 B3 B B2 | B2!ff! B^c ^de | f3 ^A A2 | B4 Bc | (G3 =A) B2- | B2 AGFA | G6 | z2 z2!p! A2 | F4 E2 | %116
w: ri- de- ant|me, ne- * que ir-|ri- de- ant|me in- i-|mi- * ci|_ me- * * *|i.|Et|e- nim|
!<(! A>A B2 c2!<)! |!f! d2 f2 e2 | .d2 .c2 !>!e2- | e2!p! A2 cB | .A2 .G2 z2 | A2 c3 d | .c2 .B2 | %123
w: u- ni- ver- si,|qui te ex-|pec- tant non,|* con- fun- *|den- tur,|non con- fun-|den- tur,|
 z!f! B | (B2 c2) z c | (c2 ^d4-) | d4 z ^d | ^d4 de | e2 =dc BA | G4 A2 | d2 c2 A2 | (F3 A G2) | %132
w: ad|te, _ ad|te _|_ le-|va- vi _|a- ni- * mam *|me- am,|a- ni- mam|me- * *|
 A4 A2 | A4 A2- | A2!f! f2 ec | d2"^rit." (A2 B2) | !fermata!c4 |] %137
w: am, le-|va- vi|_ a- ni- *|mam me- *|am.|
[K:Eb][M:2/2]!p![Q:1/2=60]"^Allabreve" B2 | B4 B4 | !>!B3 B B4 | z2 B2 c2 B2 | A4 G4 | F6 F2 | %143
w: Ex|Si- on|spe- ci- es|de- co- ris|e- jus,|De- us|
!<(! G2 B2 e2 d2!<)! | c6 d2 | B4!f! B2 B2 | f6 d2 | e2 B2 d2 c2 | (A6 B2) | G4!p! G4 | %150
w: ma- ni- fes- te|ve- ni-|et. Con- gre-|ga- te|il- li sanc- tos|e- *|jus, qui|
 G2 G2 c3 c |"^cresc." =B4 G2 G2 | G2 c2 e4 | d4!f! d2 d2 | g6 f2 | (d2 e4) d2 | (e2 B2)!p! d2 c2 | %157
w: or- di- na- ve-|runt tes- ta-|men- tum e-|jus su- per|sa- cri-|fi- * ci-|a, _ su- per|
 B8- | (B2 F2) (A2 G2) | (F2 E4) D2 | E4 z2!f! B2 | G2 B2 B3 B | c6 c2 | A2 c2 c4 | F4 B4 | %165
w: sa-|* * cri- *|fi- * ci-|a. Lae-|ta- tus sum in|his, quae|dic- ta sunt|mi- hi,|
 z2 (G2 B2) e2 | c4 A4- | A2 A4 B2 | G4 F2!f! B2 | G2 B2 B3 B | c6 c2 | A4 c4 | F3 B B4- | %173
w: al- * le-|lu- ja,|* al- le-|lu- ja, in|do- mum Do- mi-|ni, in|do- mum|i- bi- mus,|
 B2 (B2 G2) e2 | e4 d4 | z2!ff! (B2 e2) g2 | g4 f4- | f4 e4- | e4 c4 | (B6 =B2) | c8- | %181
w: _ al- * le-|lu- ja,|al- * le-|lu- ja,|_ al-|* le-|lu- *|ja,|
 c2 (c=B c2) d2 | e4 =A4- | A2 (=A2 c2) e2 | g4 d4 | e4 =B4 | c4 G4 | A2 G2 F4 | E8- | %189
w: _ al- * * le-|lu- ja,|_ al- * le-|lu- ja,|al- le-|lu- *||ja,|
 E2 !>!e4"^rit.   -   -   -   -" !>!c2 | (A4 c4) | !fermata!B8 |] %192
w: _ al- le-|lu- *|ja.|
[K:Bb][M:4/4]!p![Q:1/4=69]"^Adagio" G4 ^F4 | GA B2 A3 A |!<(! Bc d4!<)!!>(! ^c2!>)! | d8- | %196
w: De- us|tu con- ver- tens, vi-|vi- fi- ca- bis|nos|
!<(! d8!<)! |!f!!<(! e2 =B2 c2 GG | _A3 A A2 G2 | ^F6 z2 | z2"^dolce"!p! d2 B2 G2 | F2 G2 B3 B | %202
w: |et plebs tu- a lae-|ta- bi- tur in|te.|Os- ten- de|no- bis Do- mi-|
 B2!mf! d2 B2 G2 | F2 GB d3 d | d2!f! d>f e2 d2 | (c2 B2 A2) G2 | ^F4 (G4 | B4) A2!p! c2 | %208
w: ne, os- ten- de|no- bis * Do- mi-|ne mi- * se- ri-|cor- * * di-|am tu-|* am et|
 (f2 B4) A2 | (A2 G2) F4 | (f2 B4)"^cresc." A2 | (B2 cd) e4 |!f! d4 f2 =ed | %213
w: sa- * lu-|ta- * re,|sa- * lu-|ta- * * re|tu- um da *|
 !tenuto!^c2 !tenuto!=e2 z4 | B3 A A4 | B3 A A4 | z2!p! G2 F2 E2 | E2 D2 z2 D2 | G2 G2 F2 EE | %219
w: no- bis|Do- mi- ne,|Do- mi- ne,|os- ten- de|no- bis mi-|se- ri- cor- di- am|
 .E2 .D2 !fermata!z2 z2 |!pp! G4 ^F4 | GA B2 A3 A | Bc d4 ^c2!<)! |!f! d8- | d4 d2 d2 | %225
w: tu- am.|De- us,|tu con- ver- tens vi-|vi- fi- ca- bis|nos|_ et plebs|
 (g2 fe) dc Bc | d3 d d2 d2 | d4 z2 GA | B3 B B2 A2 | D4 z2!p! d2 | d2 B2 G2 A2 | =B4 z2!pp! =e2 | %232
w: tu- * * a * lae- *|ta- bi- tur in|te, lae- *|ta- bi- tur in|te, lae-|ta- bi- tur in|te, lae-|
[Q:1/4=50]"^Largo" d2 G2 G2 ^F2 | !fermata!G8 |][K:C][M:2/2]!f![Q:1/2=63]"^Alla breve" G2 | %235
w: ta- bi- tur in|te.|Qui|
 !tenuto!G4 !tenuto!c4 | A3 A f4 | z2 f4 e2 | c3 d d4- | d4 z4 |!p! G3 G G2 A2 | _B3 B B4 | %242
w: se- des,|Do- mi- ne,|su- per|Che- ru- bim,|_|ex- ci- ta po-|ten- ti- am|
"^cresc." A2 A4 =B2 | (c2 A2) c4- | c2!f! d2 e2 ^f2 | g2 d2 B4 | z2 d2 e2 ^f2 | g2 d2 B2 B2 | %248
w: tu- am et|ve- * ni,|_ qui re- gis|Is- ra- el,|qui re- gis|Is- ra- el in-|
 e4 A2 A2 | d4 G2 c2 | A8 | G6 z2 |!p! (.G4 ._B4 | .d4 .A4) | c2 _B2 A2 G2 | ^F4 A4- | %256
w: ten- de, in-|ten- de, in-|ten-|de:|qui de-|du- cis|ve- lut o- vem|Jo- seph,|
 A2 z2!f! _e2 e2 | _e4 _B4 |!p! _B2 =B2 c2 _A2 | !tenuto!_A4 !tenuto!G4 | z8 | z2!f! (=B2 c2) d2 | %262
w: _ qui de-|du- cis|ve- lut o- vem|Jo- seph.||Al- * le-|
 (_e2 d2) c4 | z8 | z2 (c2 d2) _e2 | (f2 _e2) d2 (f2 | _e2 d2 c2) e2 | (d2 c2) =B2 d2- | %268
w: lu- * ja,||al- * le-|lu- * ja, al-|* * * le-|lu- * ja, al-|
 d2 =B2 (c2 ^F2) | G4 | z2!ff! G2 | !tenuto!G4 !tenuto!c4 | A3 A f4 | z2 f2 e2 c2 | d3 G G4 | %275
w: * le- lu- *|ja.|Ex-|ci- ta|Do- mi- ne,|ex- ci- ta|Do- mi- ne|
 z4 z2!p! d2 | c3 c c4 |!<(! f4 f2 f2!<)! | (e2 B2) c2 z2 | z2!f! (d2 B2) G2 | G4 c4 | (f6 g2) | %282
w: po-|ten- ti- am|tu- am et|ve- * ni,|al- * le-|lu- ja,|ve- *|
 e6 e2 | e4 B4 | c4 A4 | z2 (c2 d2) e2 | (f2 c2) A2 |!p! A2 | A4 A4- | A4 z2 A2 |!<(! A4 A4 | %291
w: ni, et|ve- ni,|ve- ni,|al- * le-|lu- * ja;|ut|sal- vos,|_ ut|sal- vos|
 A3 A A4!<)! |!ff! c8 | z2 (c2 e2) f2 | (g2 e2 c2 d2 | e4 d4) | !fermata!c6 |] %297
w: fa- ci- as|nos.|Al- * le-|lu- * * *||ja.|
[K:F][M:3/2]!f![Q:1/2=72]"^Andante" c4 d4 c4 | f12 | !fermata!e8 !fermata!z4 | z12 | z12 | %302
w: Be- ne- di-|xi-|sti,|||
!p! A4 B4 A4 | d8 c4- | c4 B4 A4 | G4!f! e4 e4 | (f4 e2 d2) c4 | B8 B4 | %308
w: be- ne- di-|xi- sti,|_ Do- mi-|ne, ter- ram|tu- * * am,|ter- ram|
!p! !tenuto!B4 !tenuto!A4 A4- | (A4 B4) A4 | d8 G4- | G2!<(! G2 A4 B4 | c8!<)! ^c4 |!f! d4 f8- | %314
w: tu- am, a-|* * ver-|ti- sti|_ cap- ti- vi-|ta- tem|Ja- *|
 f4 _e2 d2 c2 e2 | d12- | d4 c2 B2 A2 c2 | B4 z4 z4 |!f! (d4 _e4) d4 | g8 f4- | f4 _e4 d2 d2 | %321
w: |||cob,|a- * ver-|ti- sti|_ cap- ti- vi-|
 (d4 c4) B4- |"^dim." B4 (A4 G4) | ^F4 z4 z4 | z4!pp! d4 _e4 | _e4 d8- | d4"^cresc." d4 _e4 | %327
w: ta- * tem|_ Ja- *|cob,|re- mi-|si- sti|_ re- mi-|
 _e4 d8 | z2!f! c2 c4 _d4 | _d4 c8- | c4 (B2 _A2) (G2 F2) | !tenuto!E4 !tenuto!G4 z4 | z12 | %333
w: si- sti|in- i- qui-|ta- tem|* ple- * bis _|tu- ae.||
!p! c4!<(! d4 c4!<)! |!>(! f8!>)! e4- | e4 e4 d4 | c4!mf! c4 ^c4 | d4 G8- | (G2 A2) B4 =B4 | %339
w: Be- ne- di-|xi- sti|_ Do- mi-|ne, ter- ram|tu- am,|_ _ ter- ram|
!<(! c4 ^F8-!<)! | F4!f! _e4 e4 | _e4 B4 e4- | e4 _e6 d2 | (f4 c4) A4 | (A8 G4) | F8 z4 | %346
w: tu- am|_ a- ver-|ti- sti cap-|* ti- vi-|ta- * tem|Ja- *|cob.|
!p! c4 B4 A4 | G4 d8 | (c6 G2) (A2 B2) | B4 A4 z4 |!f! f4 A6 A2 | (d2 B2) G8 | %352
w: Be- ne- di-|xi- sti|ter- * ram *|tu- am,|be- ne- di-|xi- * sti|
[Q:1/4=90]"^Largo" (B6 A2) G4 | !fermata!F12 |] %354
w: Do- * mi-|ne.|
[K:E][M:4/4]!p!"^dolce"[Q:1/4=66]"^Poco adagio" G4 GA B2 | G3 F F2 FG | %356
w: Pro- pe _ est|Do- mi- nus om- ni-|
 A2 AA!<(! Af!<)!e!>(!A!>)! | A4 G2 z2 | !>!e3 B B2 BB | (c2 G^A) B2 z!mf! d | !>!e2 B2 B2 BB | %361
w: bus in- vo- can- * ti- bus|e- um,|om- ni- bus qui in-|vo- * * cant, in-|vo- cant e- um in|
 cc G^A (B2 =A2) |!pp! G4- GA B2 | G3 F F2 FG |!<(! A4 Af!<)!!>(! fA!>)! | A4 G3 G | %366
w: ve- ri- ta- * te, _|lau- * * dem|Do- mi- ni lo- *|que- tur _ os _|me- um, et|
!<(! =G3 G GA B=c!<)! |!>(! e2 =d2!>)! =G3 A | =c2 B2 !>!E2 !>!F2 | !>!F2 !>!F2 z2!f! BB | %370
w: be- ne- di- * cat _|om- nis ca- ro|no- men sanc- tum|e- jus. Al- le-|
 e2 B4 BB | Be B4 B2- | BGBA- AFAG- | GF EF G2!f! GG | e>d c2!p! c2 BA | G2 GF E2 z!f! c | %376
w: lu- ja, al- le-|lu- * ja, al-||* le- lu- * ja. Ve- ni|Do- mi- ne et no- li|tar- da- * re, re-|
 B=dcB A>G F2 |!p! FFEC G>G G2- | G2!pp! G4 G2 | G4 GA B2 | G3 F F2 FG | %381
w: la- * xa fa- ci- no- ra|ple- bis tu- ae Is- ra- el.|_ Pro- pe,|pro- pe * est|Do- mi- nus om- ni-|
 A2 AA!<(! Af!<)!e!>(!A!>)! | A4 G2 z2 | !>!e3 B B2 BB | (c2 G^A) B2 z!f! d | e2 dc B2 BB | %386
w: bus in- vo- can- * ti- bus|e- um,|om- ni- bus qui in-|vo- * * cant, in-|vo- cant _ e- um in|
 cc G^A B2!ff! B>B | c4 =c2 (B2- | B2 ed^cB) AG | (F2 G2 F4) | !fermata!E8 |] %391
w: ve- ri- ta- * te, al- le-|lu- ja, al-|* * * * * le- *|lu- * *|ja.|
[K:C][M:3/4]!p![Q:1/4=63]"^Andante molto" E2 A3 A | G2 E4 | G2 c3 c |!<(! B2 G4!<)! |!f! e3 e e2 | %396
w: A- ve Ma-|ri- a,|a- ve Ma-|ri- a,|gra- ti- a|
 fedc =BA |!p! (^G2 AB c2) | B4 z2 | z2!f! B>^A B2 | c2 =A4 | z2!mf! G>^F G2 | A2 G2 z2 | z6 | z6 | %405
w: ple- * * * na, _|a- * * *|ve,|Do- mi- nus|te- cum,|Do- mi- nus|te- cum,|||
 z2!<(! Ge ed!<)! | d>^c c2 z!f! c | d>d E2 F2 | _B4 A2- | A2 GF ED | !>!F2 !>!E2 !fermata!z2 | %411
w: be- * ne- *|dic- ta tu et|be- ne- dic- tus|fruc- tus|_ ven- * tris _|tu- i.|
!pp! E2 A3 A | G2 E4 | (G2"^cresc." c3) c | B2 G4 |!f! e4 e2 | fe dc _BA | %417
w: Sanc- ta Ma-|ri- a,|ma- * ter|De- i,|o- ra,|o- * ra _ pro _|
 !tenuto!^G2 !tenuto!A2!f! e>A | e>^d d3 z |!pp! ^d2 d2 d=d | d4 d^c |!<(! ^c2 =c2 _B2!<)! | %422
w: no- bis pec- ca-|to- ri- bus|nunc et in _|ho- ra, _|nunc et in|
!f! _B2 A4- |"^dim." A2 G2 F2 |!p! (E4 B2) | A4 z2 | z2!f! e2 A2 | (d4 e2 | f2 ^c2 d2) | %429
w: ho- ra|_ mor- tis|nos- *|trae.|A- men,|a- *||
 !fermata!e6 |] %430
w: men.|
V:2
 z2 | z8 | z4 z2!p! E2 | C3 D E2 =E2 | F3 F _E4- | E2 EF (GA B2) | A6 z2 | z2!f! A2 c2 B2 | %8
w: ||Ro-|ra- te coe- li|de- su- per,|_ ro- * ra- * *|te,|ro- ra- te|
 =A2 B2 F2 F2 | F2!p! F2 (E2 FG) | A6 z!f! C | C3 C C3 F | F4 =E2 z E | =E2 E2 F2 A2 | AGBA G4 | %15
w: coe- li de- su-|per, ro- ra- * *|te; et|nu- bes plu- ant|jus- tum, et|nu- bes plu- ant|jus- * * * tum;|
!p! A2 cB A2 G2 | F4 F2"^cresc." F2 | E3 E E2 A2 | G3 G G2!f! (c2 | B3) B A4 | G4 z2!p! G2 | %21
w: a- per- i- a- tur|ter- ra et|ger- mi- net, et|ger- mi- net Sal-|* va- to-|rem, a-|
 !>!_G6 G2 | .F2 .F2 z2 F2 | !>!_F2 E2 E2 D2 | .C2 .C2 z2!p! CE | =D3 D D4 |!<(! A3 A A4!<)! | %27
w: per- i-|a- tur, a-|per- i- a- tur|ter- ra et *|ger- mi- net,|ger- mi- net|
!f! (F4 G2) A2 | A4 G4- | G2 z2 z2!pp! E2 | E2 E2 E2 =E2 | F3 F _E4- | E2 EF (GA B2) | A6 z!f! c | %34
w: Sal- * va-|to- rem.|* Ro-|ra- te coe- li|de- su- per,|* ro- * ra- * *|te, et|
 A2 c2 A4 | G6!p! _G2 | F3 F =G2 G2 | .A2 .E2 z2!f! c2 | A2 c2 A4 | G4 z2!p! _G2 | F3 F =G2 E2 | %41
w: nu- bes plu-|ant, et|nu- bes plu- ant|jus- tum, a-|per- i- a-|tur, a-|per- i- a- tur|
 .E2 .C2 z2 C2 | D3 C"^cresc." C2 _GA | F3 E E2!f! A2- | A4 A4 | A8 | !fermata!A6 |][K:F]!p! A>A | %48
w: ter- ra, et|ger- mi- net, et _|ger- mi- net Sal-|* va-|to-|rem.|U- ni-|
 A2 G2 F2!<(! E>E!<)! |!>(! D2 D2!>)! z2 D2 |!<(! D2 D2 G2 F2!<)! | E>E E2 z2!f! EE | D2 F2 F2 EE | %53
w: ver- si, qui te ex-|pec- tant non|con- fun- den- tur,|Do- mi- ne, vi- as|tu- as no- tas fac|
 F2 F2 z FFF | C2 !>!E4 EE | E3 F F2 z2 | z8 |!mf! A2 A>A A2 ^F2 | G7/2 G/ (G2 A2) | %59
w: mi- hi et se- mi-|tas tu- as e-|do- ce me.||Os- ten- de no- bis|Do- mi- ne, _|
!f! =B2 B>B B2 B2 |!>(! _B7/2 B/ B3!>)!!p! B | A2 cB (A2 G2 | ^F2) =F2 (E2 _E2) | (D2 BA G^F G2) | %64
w: os- ten- de no- bis|Do- mi- ne mi-|se- ri- * cor- *|* di- am _|tu- * * * * *|
 E2 z!f! A !tenuto!A2 !tenuto!B2 | A2 G2 F2 _E2 | (D2 A2 D2) _E2 |!p! D2 DD (D2 ^C2) | %68
w: am, * * *||||
 D2 z2 z2!f! F>F | ^C2 D2 z2 A>F | G2 F2 z2 A>A | (DE F4 E2) | F4 z2 A>F | E2 F2 z2 F>F | %74
w: ||||||
 (F2 !>!^FG)"^- ja" A2 D>D | (G2 !>!^GA)"^- ja" =B2 |!ff! _B>B | A8- | (A3 ^G AE=G^F) | G2 =B4 B2 | %80
w: |||lu-||ja, al- le-|
 (AG ^F2 G4) | !fermata!^F6 |][K:A][M:3/4] z2 | z6 | z2 z2!p! D2 | B,4 E2 | C2 A,2 C2 | D4 B,E | %88
w: lu- * * *|ja.|||Ad|te le-|va- vi, ad|te * *|
 (E2 FG)!<(! A2 | B2!<)! B2!>(! B2 | B2 A2!>)! z2 |!p! E4 E2 | E2 E2 z E | (c2 G2) A2 | %94
w: |||De- us|me- us, in|te _ con-|
 .F2 .G2 E2- | E2 =C2 D2 | .E2 .E2 z2 |!f! E2 =cB A2 | .A2 .^G2 z2 |!p!"^dolce" E2 E2 E2 | %100
w: fi- do, non|_ e- ru-|bes- cam,|non e- * ru-|bes- cam;|ne- que ir-|
 =G3 E E2- | E4 E2 | !>!D3 D D2 | D2!<(! DE =FD!<)! |!>(! =F2!>)! E4 | z2!f! =G2 ^FG | A3 A A2 | %107
w: ri- de- ant,|_ ir-|ri- de- ant|me in- i- mi- ci|me- i,|ne- que ir-|ri- de- ant|
 A2 F^G AF | A2 G3!ff! G | ^A3 F F2 | (F2 =A2) GG | E4 E2 | (E4 ^D2) | E4!>(! F2 | %114
w: me in- i- mi- ci|me- i, ir-|ri- de- ant|me _ in- i-|mi- ci|me- *|i. Et|
 (E2 =D2)!>)! C2 |!p! B,4 B,2 |!<(! E>E FG A2!<)! |!f! B2 B2 B2 | .B2 .A2 z2 |!p! E4 EE | %120
w: e- * nim|e- nim||||non con- fun-|
 .E2 .E2 z2 | E2 E2 E2 | .E2 .E2 | z!f! E | (E2 ^E2) z E | F6- | F4 z !>!F | !>!F2 !>!F2 =FE | %128
w: den- tur,||||||* le-|va- vi, le- *|
 E6- | E2 E2 z2 | B2 AG FE | (^D2 !>!=D4) | C2!f! F2 EC | D2 (=G2 F2) | E2 A2 A2 | A2 (=G2 =F2) | %136
w: va-|* vi|a- ni- * mam *|me- *|am, a- ni- *|mam me- *|am, * *||
 !fermata!E4 |][K:Eb][M:2/2]!p! G2 | G4 G4 | !>!A3 A G4 | z2 E2 E2 E2 | (E2 D2) E4 | D6 D2 | %143
w: |||||||
!<(! E2 G2 G2 G2!<)! | G4 ^F4 | G4!f! B2 B2 | B6 B2 | B3 B G2 G2 | (G2 E2 F4) | G4!p! G4 | %150
w: |||||||
 G2 F2 E3 G |"^cresc." G4 G2 G2 | G3 G ^F4 | G4!f! G2 G2 | (=B4 c2) A2 | (A2 G2) F4 |"^dim." E8- | %157
w: |||||||
 (E2 B,2)!p! D2 C2 | B,4 =B,4 | C4 _B,4 | B,6 z2 | z4 z2!f! E2 | C2 E2 E3 E | F6 F2 | D2 F2 F4 | %165
w: * * su- per|sa- cri-|fi- ci-|a.|Lae-|ta- tus sum in|his, quae|dic- ta sunt|
 B,4 E4 | z2 (C2 E2) A2 | F8- | (F2 E2) D2 z2 | z4 z2!f! E2 | C2 E2 E3 E | F6 F2 | D4 F4 | %173
w: mi- hi,|al- * le-|lu-|* * ja,|in|do- mum Do- mi-|ni, in|do- mum|
 B,3 E E4 | z2 (A2 F2) A2 | G8 | A6!ff! B2 | G2 B2 B3 B | c6 A2 | A6 GF | E2 cB A2 G2 | F6 F2 | %182
w: i- bi- mus,|al- * le-|lu-|ja, lae-|ta- tus sum in|his, in|his, lae- *|ta- tus * sum in|his, lae-|
 F2 F2 F2 !>!F2 | !>!^F6 F2 | G2 B4 A2- | A2 G4 F2- | F2 E4 _D2 | (C2 E2 =D4 | E4 _D4) | %189
w: ta- tus sum in|his, al-|||* * le-|lu- * *||
 C2 z2 A2 A2 | (E2 =D2 E2 F2) | !fermata!G8 |][K:Bb][M:4/4]!p! D4 D4 | DD G4 ^FF | %194
w: ja, al- le-|lu- * * *|ja.|De- us|tu con- ver- tens, vi-|
!<(! G3 G A2 B2!<)! |!>(! ^F6!>)! z2 | z4!f! B,2 _A2 | (G2 D2) E2 =B,2 | C2 D2 E2 E2 | D6 z2 | %200
w: vi- fi- ca- bis|nos|et plebs|tu- * a lae-|ta- bi- tur in|te.|
 z2!p! D2 E2 E2 | D2 G2 F2 E2 | D2 z!mf! D D2 E2 | D2 G2 ^F2 G2 | A4 z4 | z2!f! D>=F E2 D2 | %206
w: |||||mi- * se- ri-|
 C3 C ^C4 | (D2 F2) F2!p! AG | F4 E4 | D4 E4 | F4"^cresc." F4 | F4 ^F4 |!f! G2 ^G4 G2 | %213
w: cor- si- am|tu- * am, * *||||||
 !tenuto!A2 !tenuto!A2 z4 | =G3 G G4 | ^F3 F F4 | z2!p! D2 C2 B,2 | A,2 A,2 z2 D2 | D2 D2 C2 B,B, | %219
w: ||||||
 .A,2 .A,2 !fermata!z2!pp! D2- | D2 E4 D2- | DD G4 ^FF |!<(! G3 G A2 BG!<)! | ^F6 z2 | %224
w: * * De-|* us tu|* con- ver- tens vi-|vi- fi- ca- bis *|nos|
!f! D2 c2 B4- | B4 G2 G2 | G3 G ^F2 F2 | D4 z2 G2 | G3 G G2 E2 | D4 z2!p! D2 | G2 D2 D2 ^F2 | %231
w: et plebs tu-|* a lae-|ta- bi- tur in|te, *||||
 G4 z2!pp! G2 | G3 D D2 D2 | !fermata!D8 |][K:C][M:2/2]!f! E2 | !tenuto!E4 !tenuto!G4 | F3 F A4 | %237
w: ||||||
 z2 G4 G2 | E3 G G4- | G4 z4 | z8 |!p! G3 G G2 G2 |"^cresc." G3 G G4 | ^F4 F2 G2 | %244
w: ||||ex- ci- ta po-|ten- ti- am|tu- am et|
 (A2 ^F2) A2!f! A2 | (G4 B2) G2 | G3 ^F F2 A2 | G4 B2 G2 | G4 ^F2 F2 | G4 G2 G2 | (G2 E2 G2 ^F2) | %251
w: ve- * ni, qui|re- * gis|Is- ra- el, qui|re- gis, *||||
 D6 z2 |!p! D6 D2 | D6 D2 |"^ve           -" C6"^lut" C2 | D4 D4- | D2 z2!f! ^F2 F2 | G4 G4 | %258
w: ||||o- vem,|_ qui de-|du- cis|
!p! F3 F F2 F2 | !tenuto!F4 !tenuto!F4 | z8 | z8 | z2!f! (G2 _A2) _B2 | (c2 _B2) _A4- | A8- | %265
w: ve- lut o- vem|Jo- seph.|||Al- * le-|lu- * ja,|_|
 A4 z2 (D2 | _E2 F2 G2) E2 | (F2 G2) _A2 (A2 | G2) F2 _E4 | D4 | z2!ff! G2 | %271
w: * al-|* * * le-|lu- * ja, al-|* le- lu-|ja.||
 !tenuto!=E4 !tenuto!E4 | F3 F A4 | z2 G2 G2 E2 | G3 G G4 | z8 | z2!p! G2 E2 C2 | %277
w: |||||et ve- ni,|
 z2!<(! (G2 A2) B2!<)! | (c2 _A2) G2!f! G2 | F3 F (F4 | E2) G2 G4 | z2 (G2 A2) B2 | (c2 G2) E2 z2 | %283
w: al- * le-|lu- * ja, ex-|ci- ta Do-|* mi- ne,|al- * le-|lu- * ja,|
 z2 (E2 ^F2) ^G2 | (A2 E2) C4 | (_B4 A2) G2 | F4 F2 |!p! F2 | F4 F4- | F4 z2 F2 |!<(! F4 F4 | %291
w: al- * le-|lu- * ja,|al- * le-|lu- ja;|||||
 ^F3 F F4!<)! |!ff! G8 | z2 (E2 G2) =F2 | (E4 F4 | G4 B4) | !fermata!c6 |] %297
w: ||||||
[K:F][M:3/2]!f! F4 F4 F4 | (F2 E2 F2 G2 A2 =B2) | !fermata!c8 !fermata!z4 | z12 |!p! C4 D4 C4 | %302
w: ||||be- ne- di-|
 F8 E4 | D12- | (D4 G4) F4 | E4!f! G4 G4 | (F4 A4) c4 | (F4 E2 F2) G4 | !tenuto!G4 !tenuto!G4 z4 | %309
w: xi- sti,|Do-|* * mi-|ne, * *||||
!p! _E8 E4 | D8 D4 |"^cap -"!<(! =E4 E4 E4 | _E4 E8!<)! |!f!"^Ja -" D8 F4 | G8 A4 | B6 c2 B2 A2 | %316
w: a- ver-|ti- sti||||||
 G8"^cob," F4 |!f!"^a      -" (F4 G4)"^ver -" F4 | B8 A4 | G12- | G4 G4 ^F4 | G8 =F4 | %322
w: ||ti- sti|cap-|* ti- vi-|ta- tem|
"^dim." (_E6 D2 E4) | D4 z4 z4 | z12 |!pp! A8 D4 | D4"^cresc." B8 | A8 _A4 | G6 F2!f! E4 | %329
w: Ja- * *|cob,||re- mi-|si- sti,|re- mi-|si- sti in-|
 F6 G2 _A4- | A2 _A2 F4 =B,4 | !tenuto!C4 !tenuto!C4 z4 |!p!"^dolce" C4!<(! =D4 C4!<)! | %333
w: i- qui- ta-|* tem ple- bis|tu- ae.|Be- ne- di-|
!>(! F8!>)! E4- | E4 (D4 F4-) | F8 B4 | A4!mf! A4 G4 | F8 F4- | F4 E4 D4 | %339
w: xi- sti|_ Do- *|* mi-|ne, ter- ram|tu- am,|_ ter- ram|
"^cresc.""^tu" C8-"^-" (C2 D2) |"^am" _E4!f! ^F4 F4 | G4 G4 B4- | B4 _A4 A4 | =A8 F4 | (F8 E4) | %345
w: ||||||
 F8 z4 |!p! F4 F4 F4 | F4 F8- | F4"^ter -" E6"^ram" E2 | F4 F4 z4 |!f! F4 F6 F2 | F4 F8 | E8 E4 | %353
w: ||||||||
 !fermata!C12 |][K:E][M:4/4]!p! E4 E2 E2 | D3 D D2 DD | D2 DE!<(! F2!<)! A!>(!F!>)! | F4 E2 z2 | %358
w: |||||
 !>!E3 F D2 BA | (GF E2) F2 z!mf! F | !>!E2 FE D2 BA | GF E2 F4 |!pp! D6 D2 | D3 D D2 D2 | %364
w: |||||* * * lo-|
!<(! D2 DE F4-!<)! |!>(! F4!>)! E3 E | E3!<(! E E2 E2!<)! |!>(! =F3 F!>)! E2 =G2 | %368
w: que- tur os me-|* um, *|||
 =G2 G2 !>!E2 !>!E2 | !>!E2 !>!^D2 z2!f! BB | (B2 A2)"^ja," G2 FF | (E2 DA) G2 FF | E4 D2 E2 | %373
w: |||lu- * * ja, al- le-|lu- * *|
 C2 c2 ^B2!f! GG | G>F E2!p! D2 DD | DF ED C2 z!f! E | ^E2 EE F>F F2 |!p! DDCC C>^B, B,2- | %378
w: * * ja. * *||tar- * da- * re, *|||
 B,2 z2 z4 |!pp! E4 E2 E2 | D3 D D2 DD | D2 DE!<(! F2!<)! A!>(!F!>)! | F4 E2 z2 | !>!E3 F D2 BA | %384
w: ||||||
 (GF E2) F2 z!f! F | EG FE D2 BA | GF E2 D2!ff! F>F | (G2 F4 A2) | G4 E2 E2 | (D2 E4 D2) | %390
w: ||* * * * al- le-|lu- * *|ja, al- le-|lu- * *|
 !fermata!B,8 |][K:C][M:3/4]!p! C2 E3 E | E2 C4 | D2 G2 G2 |!<(! G2 E4!<)! |!f! ^G2 A2 _B2 | %396
w: ja.|A- ve Ma-|ri- a,|a- ve Ma-|ri- a,|gra- ti- a|
 A4 F2 |!p! E4- E^D | E4 z2 | z2!f! F>F F2 | F2 E4 | z2!mf! F>F F2 | E2 E2 z2 | z2!<(! E_B B!<)!A | %404
w: ple- na,|a- * *|ve,|Do- mi- nus|te- cum,|Do- mi- nus|te- cum,|be- * ne- *|
!>(! A>G!>)! G4- | G2 E2 E2 | E>E E2 z!f! E | D>D C2 CF | (F2 E2) _E2 | D4 D2 | %410
w: dic- ta tu,|_ be- ne-|dic- ta- tu et|be- ne- dic- tus _|fruc- * tus|ven- tris|
 !>!D2 !>!D2 !fermata!z2 |!pp! C2 E3 E | E2 C4 | (D2"^cresc." G2) G2 | G2 E4 |!f! (^G2 A2) _B2 | %416
w: tu- i.|Sanc- ta Ma-|ri- a,|ma- * ter|De- i,|o- * ra,|
 A2 A2 F2 | !tenuto!F2 !tenuto!E2!f! E>E | ^F>F F3 z |!pp! ^F2 F2 F=F | F2 E4 |!<(! E2 E2 E2!<)! | %422
w: o- ra pro|no- bis pec- ca-|to- ri- bus|nunc et in _|ho- ra,|nunc et in|
!f! F4 E^D |!>(! E4 =DC!>)! |!p! (=B,4 D2) | ^C2!f! A2 E2 | G4 ^F2 | (=F2 A4- | A2 _BAGF) | %429
w: ho- ra *|mor- tis _|nos- *|trae. A- men,|a- men,|a- *||
 !fermata!E6 |] %430
w: men.|
V:3
!p!"^dolce" c2 | e3 d c2 c2 | c2 B2 A4- | A2 A2 A2 A2 | d4 c4- | c2 B2 e4- | (e3 d) c2!f! c2 | %7
w: Ro-|ra- te coe- li|de- su- per,|_ ro- ra- te|coe- li,|_ ro- ra-|* * te, ro-|
 e3 d c2 c2 | c2 B2 =A2 A2 | Bc d4!p! B2 | (c2 AF) E2 z!f! A | A3 A A3 A | AGBA G2 z c | %13
w: ra- te coe- li|de- su- per, ro-|ra- * te, ro-|ra- * * te; et|nu- bes plu- ant|jus- * * * tum, et|
 c2 c2 c2 c2 | (d2 f2) e4 |!p! e2 ee e2 =e2 | f2 A4"^cresc." A2 | A2 c2 A2 A2 | c2 e2 c2!f! e2- | %19
w: nu- bes plu- ant|jus- * tum;|a- pe- ri- a- tur|ter- ra et|ger- mi- net, et|ger- mi- net Sal-|
 e2 g2 (f2 =d2) | B4 z2!p! B2 | (c4 B2) =A2 | .d2 .d2 z2 B2 | d3 d F2 G2 | .A2 .A2 z2!p! A2 | %25
w: * va- to- *|rem, a-|per- * i-|a- tur, a-|per- i- a- tur|ter- ra et|
 B2 B2 B4 |!<(!!<(! B2 B2 B4!<)!!<)! |!f! (=d4 e2) f2 | =d4 e4- | e2 z2 z2!pp! A2 | c3 B A2 A2 | %31
w: ger- mi- net,|ger- mi- nrt|Sal- * va-|to- rem.|* Ro-|ra- te coe- li|
 d3 d c4- | c2 B2 e4- | (e3 d) c2 z!f! c | c2 c2 c4 | c6!p! =A2 | B3 c d2 e2 | .e2 .c2 z2!f! c2 | %38
w: de- su- per,|* ro- ra-|* * te, et|nu- bes plu-|ant, et|nu- bes plu- ant|jus- tum, a-|
 c2 A2 c4 | c4 z2!p! c2 | d3 d d2 d2 | .c2 .A2 z2 A2 | A2 A2"^cresc." A4 | A2 A2 c4 | %44
w: per- i- a-|tur, a-|per- i- a- tur|ter- ra, et|ger- mi- net,|ger- mi- net|
!f! (d2 ef) _g4 | (f4- fd f2) | !fermata!e6 |][K:F]!p! A>A | A2 A2 A2!<(! A>A!<)! | %49
w: Sal- * * va-|to- * * *|rem.|U- ni-|ver- si, qui te ex-|
!>(! B2 B2!>)! z2 B2 |!<(! B2 A2 G2 G2!<)! | G>A A2 z2!f! AG | F2 B2 G2 cc | F2 F2 z FAB | %54
w: pec- tant non|con- fun- den- tur,|Do- mi- ne, vi- as|tu- as no- tas fac|mi- hi et se- mi-|
 G2 !>!c4 Bc | B3 A A2 z2 |!mf! c2 c>c cd _e2- | e2 d>^c d2 z2 | z2!f! (d3 =e) =f2- | %59
w: tas tu- as e-|do- ce me.|Os- ten- de no- * bis|* Do- mi- ne,|no- * bis|
 f2 e>^d e2 =d2 |!>(! ^c7/2 c/ c2!>)!!p! c2 | d2 AB =c2 ^c2 | (d2 A4) ^F2 | (G3 A) B4 | %64
w: _ Do- mi- ne mi-|se- ri- cor- di-|am, mi- * se- ri-|cor- * di-|am * tu-|
 A2 z!f! ^c !tenuto!d2 !tenuto!e2 | f2 ^c2 d2 =c2 | (B2 cA B2) B2 |!p! A2 FF G4 | F2!f! d>A f2 d2 | %69
w: am, et sa- lu-|ta- re, sa- lu-|ta- * * * re|tu- um da no-|bis. Al- le- lu- ja,|
 z2 d>A f2 d2 | z2 A>c (f2 e2 | d2 G4 c2) | c4 z2 c>A | B2 A2 z2 _e>e | d2 c4 d>d | d2 d4 | %76
w: al- le- lu- ja,|al- le- lu- *||ja, al- le-|lu- ja, * *|||
!ff! ^c>c | (d3 A =Bd^ce) | d2 =B2 e2 _e2 | d4 g3 ^f | (e2 d2 e4) | !fermata!A6 |][K:A][M:3/4] z2 | %83
w: al- le-|lu- * * * * *|ja, al- le- lu-|ja, al- le-|lu- * *|ja.||
 z2 z2!p! A2 | F4 B2 | G2 E4- | E2 z2 A2 | A4 G2 | (e2 d2)!<(! c2 | f2!<)! d2!>(! e2 | %90
w: Ad|te le-|va- vi,|_ ad|te le-|va- * vi|a- ni- mam|
 e2 e2!>)! z2 |!p! A4 E2 | B2 B2 z G | (A2 B2) c2 | .^d2 .e2 z2 | A4 AA | .B2 .G2 z2 | %97
w: me- am,|De- us|me- us, in|te _ con-|fi- do,|non e- ru-|bes- cam,|
!f! =c2 c2 c2 | .=c2 .B2 z2 | z6 | z6 |!p! =c2 =G2 c2 | !>!=c3 c c2 | B2!<(! B=c dB!<)! | %104
w: non e- ru-|bes- cam;|||ne- que ir-|ri- de- ant|me in- i- mi- ci|
!>(! d2!>)! =c4 | z2!f! =cB A=G | ^F3 F F2 | F2 ^de fd | f2 e3!ff! e | e3 e e2 | ^d4 ee | %111
w: |||||||
 (e2 B3) G | (F4 B2) | B6 | z2 z2!p! A2 | (A2 GF) G2 |!<(! e>e d2 c2!<)! |!f! f2 d2 e2 | %118
w: * * ci|||Et|e- * * nim|u- ni- ver- si,|qui te ex-|
 .e2 .e2 z2 |!p! A4 EE | .B2 .B2 !>!e2- | e2 A2 cB | .A2 .G2 | z!f! G | G4 z c | (c2 =c3) !>!c | %126
w: pec- tant,|non con- fun-|den- tur, non|_ con- fun- *|den- tur,|ad|te, ad|te _ le-|
 !>!=c2 !>!c2 !>!c2 | =c6 | ^c4 z2 | e2 dc BA | (G2 A2 c2 | B6) | A2 z2 z2 | z2!f! e2 dB | %134
w: va- vi, le-|va-|vi|a- ni- * mam *|me- * *||am,|a- ni- *|
 c2 c3 e | A2 A4 | !fermata!A4 |][K:Eb][M:2/2]!p! e2 | e4 e4 | !>!f3 f e4 | z2 G2 A2 B2 | %141
w: am, a- ni-|man me-|am.|Ex|Si- on|spe- ci- es|de- co- ris|
 (c2 A2) B4 | B6 B2 |!<(! B2 B2 B2 B2!<)! | G4 =A4 | B4!f! B2 B2 | d6 f2 | e2 e2 B2 c2 | (c4 d4) | %149
w: e- * jus,|De- us|ma- ni- fes- te|ve- ni-|et. Con- gre-|ga- te|il- li sanc- tos|e- *|
 d4!p! G4 | G2 G2 G3 e | (d2"^cresc." f2) e2 d2 | c2 G2 =A4 | =B4!f! B2 B2 | d4 c4 | B6 B2 | %156
w: jus, qui|or- di- na- ve-|runt * tes- ta-|men- tum e-|jus su- per|sa- cri-|fi- ci-|
"^dim." B8- | B4!p! A2 G2 | F4 F4 | (F2 G2) A4 | G6 z2 | z8 | z4 z2!f! A2 | F2 A2 A3 A | B6 B2 | %165
w: a,|_ su- per|sa- cri-|fi- * ci-|a.||Lae-|ta- tus sum in|his, quae|
 G2 B2 B4 | E4 A4- | A2 c4 B2 | B4 B2 z2 | z4!f! G3 G | A4 c4- | c4 z4 | z2 (f2 d2) B2 | e6 c2 | %174
w: dic- ta sunt|mi- hi,|_ al- le-|lu- ja,|al- le-|lu- ja,|_|al- * le-|lu- ja,|
 (A2 c2) B4 | e8- | (e2 E2) B4- | B6!ff! _d2 | c2 e2 e3 e | f6 e=d | c2 e2 e3 e | f4 z2 =B2 | %182
w: al- * le-|lu-|* * ja,|_ lae-|ta- tus sum in|his, * *|* * * in|his, lae-|
 c3 e e4- | e6 c2 | e2 g4 f2 | e6 d2 | (c6 B2) | A6 !>!B2 | !>!G2 !>!B2 B3 B | c2 z2 c2 c2 | %190
w: ta- tus sum,|_ al-||* le-|lu- *|ja, lae-|ta- tus sum in|his, al- le-|
 (e2 f2 c2 d2) | !fermata!e8 |][K:Bb][M:4/4]!p! B4 A4 | Bc d2 d3 d |!<(! dc (B2 A2) G2!<)! | %195
w: lu- * * *|ja.|De- us|tu con- ver- tens, vi-|vi- fi- ca- * bis|
!>(! A6!>)! z2 | z8 | z4!f! G2 f2 | e2 =BB c2 _B2 | =A6 z2 | z2!p! =F2 G2 A2 | B4 B4- | %202
w: nos,||et plebs|tu- a lae- ta- bi-|tur.|Os- ten- de|no- bis,|
 B2 z!mf! F F2 GA | B2 d2 c2 B2 | A4 z2!f! d>f | e2 d2 c2 B2 | A4 B4- | (B2 d2) c2!p! e2 | d4 c4 | %209
w: * os- ten- de *|no- bis Do- mi-|ne, mi- *|se- ri- cor- di-|am tu-|* * am, et|sa- lu-|
 B4 c4 | (B2 cd)"^cresc." e4 | d4 c4 |!f! d4 d2 d2 | !tenuto!=e2 !tenuto!^c2 z4 | =e3 e e4 | %215
w: ta- re,|sa- * * lu-|ta- re|tu- um da|no- bis|Do- mi- ne,|
 _e3 e e4 | z2!p! D2 D2 D2 | D2 DD D2 D2 | D4 D2 D2 | .D2 .D2 !fermata!z2 z2 |!pp! B4 A4 | %221
w: Do- mi- ne,|os- ten- de|no- bis mi- se- ri-|cor- di- am|tu- am.|De- us|
 Bc d4 dd |!<(! dc (B2 A2) G2!<)! | A4!f! D2 c2 | (B2 ^F2) G2 =F2 | (E2 G2) B2 e2 | B3 B A2!f! d2 | %227
w: tu con- ver- tens vi-|vi- fi- ca- * bis|nos et plebs|tu- * a, plebs|tu- * a lae-|ta- bi- tur, plebs|
 (g2 fe) dc Bc | d3 d d2 c2 | B4 z2!p! dc | B2 G2 B2 d2 | d2 =B2 G2!pp! A2 | (=B4 A2) c2 | %233
w: tu- * * a _ lae- *|ta- bi- tur in|te, lae- *|ta- bi- tur, lae-|ta- bi- tur in|te, _ in|
 !fermata!=B8 |][K:C][M:2/2]!f! c2 | !tenuto!c4 !tenuto!c4 | c3 c c4 | z2 B4 c2 | c3 B B4- | %239
w: te.|Qui|se- des,|Do- mi- ne,|su- per|Che- ru- bim,|
 B4 z4 | z8 |!p! c3 c c2 d2 |"^cresc." e3 e e4 | A2 d4 d2 | d4 d2!f! d2 | d4 d4 | c3 c c2 d2 | %247
w: _||ex- ci- ta po-|ten- ti- am|tu- am et|ve- ni, qui|re- gis|Is- ra- el, qui|
 d4 d2 G2 | (A2 Bc) d2 d2 | d2 B4 e2 | c8 | B6 z2 |!p! _B6 B2 | A6 A2 | (G4 ^F2) G2 | A4 ^F4- | %256
w: re- gis, in-|ten- * * de, in-|ten- de, in-|ten-|de:|qui de-|du- cis|ve- * lut|o- vem,|
 F2 z2!f! A2 A2 | _B4 _e4 |!p! d3 d d2 c2 | !tenuto!c4 !tenuto!=B4 | z2!f! (B2 c2) d2 | %261
w: _||||Al- * le-|
 (_e2 d2) c4 | z8 | z2 (c2 d2) _e2 | (f2 _e2) d2 c2 | d2 c2 _B4- | B2 (_A2 G2) _B2 | %267
w: lu- * ja,||al- * le-|lu- * ja, al-|le- lu- ja,|_ al- * le-|
 (_A2 G2) F2 (=B2 | c2) d2 (_e2 =A2) | B4 | z2!ff! G2 | !tenuto!c4 !tenuto!c4 | c3 c c4 | %273
w: lu- * ja, al-|* le- lu- *|ja.|Ex-|ci- ta|Do- mi- ne,|
 z2 d2 c2 c2 | c3 B B4 | z2!p! (d2 B2) G2 | G4 c4- | c2!<(! (B2 c2) d2!<)! | (e2 f2) e2 z2 | z8 | %280
w: ex- ci- ta|Do- mi- ne,|al- * le-|lu- ja,|_ al- * le-|lu- * ja,||
 z2!f! e2 c2 G2 | (A2 B2 c2) d2 | e4 c4 | B4 d4 | (c4 f2) e2 | (e2 d2 c2) _B2 | A4 c2 | z2 | %288
w: et ve- ni,|al- * * le-|lu- ja,|ve- ni,|ve- * ni,|al- * * le-|lu- ja;||
 z4 z2!p! c2 | c4 c4- | c2 z2 z2!<(! c2- | c2 B2 (c2 d2)!<)! |!ff! e8 | z2 c4 c2 | c8- | c2 de f4 | %296
w: ut|sal- vos|_ fa-|* ci- as _|nos.|Al- le-|lu-||
 !fermata!e6 |][K:F][M:3/2]!f! A4 B4 c4 | (d8 F4) | !fermata!G8 !fermata!z4 | z12 | z12 | z12 | %303
w: ja.|Be- ne- di-|xi- *|sti,||||
!p! B4 F4 ^F4 |!<(! G8 (A2 B2)!<)! |!f! c6 c2 c4- | c4 (c4 f4 | d8) (^c2 d2) | %308
w: be- ne- di-|xi- sti *|Do- mi- ne|_ ter- *|* ram *|
 !tenuto!e4 !tenuto!A4 z4 |!p! ^F8 F4 | (^F4 G2 A2) B4 |!<(! _d4 c4 B4 | B4 A8!<)! |!f! B4 d8- | %314
w: tu- am,|a- ver-|ti- * * sti|cap- ti- vi-|ta- tem|Ja- *|
 d4 c2 B2 A2 c2 | d4 !>!f8- | f4 _e2 d2 c2 e2 | d4 z4 z4 | z12 | z4!f! _e4 d4 | c6 B2 A4 | %321
w: |||cob,||a- ver-|ti- sti cap-|
 G2 ^F2 (G2 A2) B4 |"^dim." (c8 B4) | A4 z4 z4 | z12 | z4!pp! d4 c4 | (B6 A2)"^cresc." G4 | %327
w: ti- vi- ta- * tem|Ja- *|cob,||re- mi-|si- * sti|
 A6 c2 =B4 | c8 _B4 |!f! (_A4 c4) A4 | F8 F4 | !tenuto!G4 !tenuto!E4 z4 |!p! (F8 B4) | A8 A4 | %334
w: in- i- qui-|ta- tem|ple- * bis,|ple- bis|tu- ae.|Be- *|ne- di-|
 A8 A4 | (B6 c2) (d2 e2) | f4!mf! f4 e4 | (d8 c4) | =B4 G4 G4 | G4"^cresc." A8- | A4!f! A4 A4 | %341
w: xi- sti|Do- * mi- *|ne, ter- ram|tu- *|am, ter- ram|tu- am|_ a- ver-|
 B4 _e4 g4- | g4 f4 f4 | f8 c4 | B12 | A8 z4 |!p! c4 c4 ^c4 | d4 (B4 A4) | G4 c8 | F4 d4 z4 | %350
w: ti- sti cap-|* ti- vi-|ta- tem|Ja-|cob.|Be- ne- di-|xi- sti _|ter- ram|tu- am,|
 z4!f! d4 _e2 e2 | d4 d8 | (c4 G2 A2) B4 | !fermata!A12 |][K:E][M:4/4]!p! B4 B2 B2 | B3 B B2 BB | %356
w: be- ne- di-|xi- sti|Do- * * mi-|ne.|Pro- pe est|Do- mi- nus om- ni-|
 B2 BB B2 BB | B4 B2 z2 | B2 B2 B2 BB | B4 B2!mf! B2 | B2 B2 B2 BB | BB B2 B4 |!pp! B4 B4 | %363
w: bus in- vo- can- ti- bus|e- um,|om- ni- bus qui in-|vo- cant, in-|vo- cant e- um in|ve- ri- ta- te,|lau- dem|
 B3 B B2 B2 |!<(! B2 BB B4-!<)! |!>(! B4!>)! B2 B2 | E2 =G2 =c2 G2 | =G3!<(! G GA B=c!<)! | %368
w: Do- mi- ni lo-|que- tur os me-|* um, et|be- ne- di- cat|om- nis ca- * ro _|
 e2 =d2 !>!=c2 !>!c2 | !>!B2 !>!B2 z4 | z2!f! BB e2 B2- | B2 BB Be B2 | c4 B4 | (A2 c2) d2!f! GG | %374
w: no- men sanc- tum|e- jus.|Al- le- lu- ja,|_ al- le- lu- * ja,|al- le-|lu- * ja. Ve- ni|
 G>G G2!p! A2 Bc | c2 ^B2 c2 z!f! c | c2 cc c>B A2 |!p! AAGE D>G G2- | G2 z2 z4 |!pp! B4 B2 B2 | %380
w: Do- mi- ne et no- li|tar- da- re, re-|la- xa fa- ci- no- ra|ple- bis tu- ae Is- ra- el.|_|Pro- pe est|
 B3 B B2 BB | B2 BB B2 BB | B4 B2 z2 | B2 B2 B2 BB | B4 B2!f! B2 | B2 B2 B2 BB | BB B2 B2!ff! d>d | %387
w: Do- mi- nus om- ni-|bus in- vo- can- ti- bus|e- um,|om- ni- bus qui in-|vo- cant, in-|vo- cant e- um in|ve- ri- ta- te, al- le-|
 (^e2 c2 =d2) ^d2 | =e2 ^B2 c4- | c=BGA B3 A | !fermata!G8 |][K:C][M:3/4]!p! A2 c3 c | B2 A4 | %393
w: lu- * * ja,|al- le- lu-||ja.|A- ve Ma-|ri- a,|
 B2 e2 c2 |!<(! d2 c4!<)! |!f! d2 c2 c2- | c2 de f2 |!p! (B2 c^G A2) | ^G4 z2 | z2!f! ^G>G G2 | %400
w: a- ve Ma-|ri- a,|gra- ti- a|_ ple- * na,|a- * * *|ve,|Do- mi- nus|
 A2 c4 | z2!mf! B>B B2 | _B2 B2 z2 | z6 | z2!<(! cg g!<)!f |!>(! f>e!>)! e2 GG | G>G G2 z!f! G | %407
w: te- cum,|Do- mi- nus|te- cum,||be- * ne- *|dic- ta tu, be- ne-|dic- ta tu et|
 F>F G2 A2 | c4 c2 | _B4 B2 | !>!=B2 !>!B2 !fermata!z2 |!pp! A2 c3 c | B2 A4 | %413
w: be- ne- dic- tus|fruc- tus|ven- tris|tu- i.|Sanc- ta Ma-|ri- a,|
 (B2"^cresc." e2) c2 | d2 c4 |!f! d2 c4 | c2 de f2 | !tenuto!=B2 !tenuto!c2!f! A>A | A>A A3 z | %419
w: ma- * ter|De- i,|o- ra,|o- ra _ pro|no- bis pec- ca-|to- ri- bus|
!pp! B2 B2 B2 | B4 B_B |!<(! (_B3 A) Bc!<)! |!f! d2 c4 |!>(! (c3 _B) A2!>)! |!p! (A2 ^G4) | A4 z2 | %426
w: nunc et in|ho- ra, _|et * in _|ho- ra|mor- * tis|nos- *|trae.|
 z6 | z2!f! A2 g2 | (f2 e2 d2) | !fermata!^c6 |] %430
w: |A- men,|a- * *|men.|
V:4
 z2 | z8 | z8 | z8 | z4 z2!p! C,D, | E,6 G,,2 | A,,2 A,4!f! A,2 | C3 B, A,2 _G,2 | %8
w: ||||Ro- *|ra- te|coe- li, ro-|ra- te coe- li|
 F,3 F, F,E, D,C, | (B,,4!p! E,4) | A,,6 z!f! A, | A,3 F, F,3 D, | (D,2 B,,2) C,2 z C | %13
w: de- su- per, * ro- *|ra- *|te; et|nu- bes plu- ant|jus- * tum, et|
 C2 B,2 A,2 F,2 | D,4 D4 |!p! C2 C,C, C,2 C,2 | D,4 =D,2"^cresc." D,2 | E,3 E, E,2 F,2 | %18
w: nu- bes plu- ant|jus- tum;|a- pe- ri- a- tur|ter- ra et|ger- mi- net, et|
 G,3 G, G,2!f! (=A,2 | B,2) B,2 B,,4 | E,2 z!p! E, E,2 E,2 | E,2 E,6- | E,2 z E, E,2 E,2 | %23
w: ger- mi- net Sal-|* va- to-|rem, a- pe- ri-|a- tur,|* a- per- i-|
 E,2 E,4 E,2- | E,2 E,2 z2!p! E,2 | !>!=E,3 F, F,2 B,,F, |!<(! =E,3 F, F,2 G,A,!<)! |!f! B,2 B,,6 | %28
w: a- tur ter-|* ra et|ger- mi- net, et *|ger- mi- net Sal- va-|to- rem.|
 z2 B,2!>(! E,3 =D, | E,2!>)! _D,2 !tenuto!B,,2 !tenuto!C,2 | A,,2 z2 z4 | z4 z2!p! C,D, | %32
w: Ro- ra- te|coe- li de- su-|per,|ro- *|
 E,6 G,,2 | A,,2 A,4 z!f! C | F,2 A,2 (F,2 =E,F,) | C,6!p! C,2 | D,3 D, E,2 E,2 | %37
w: ra- te|coe- li, et|nu- bes plu- * *|ant, et|nu- bes plu- ant|
 .A,2 .C2 z2!f! C2 | F,2 A,2 (F,2 G,A,) | C,4 z2!p! =A,,2 | B,,3 B,, E,2 E,2 | %41
w: jus- tum, ap-|pe- ri- a- * *|tur, a-|per- i- a- tur|
 .A,,2 .A,2 z2 _G,A, | F,3 _G,"^cresc." G,2 E,2 | F,3 _G, G,2!f! (E,2 | F,4) C,4 | D,8 | %46
w: ter- ra, et _|ger- mi- net, et|ger- mi- net Sal-|* va-|to-|
 !fermata!A,,6 |][K:F]!p! A,>G, | F,2 E,2 D,2!<(! C,>C,!<)! |!>(! B,,2 B,2!>)! z2 B,A, | %50
w: rem.|U- ni-|ver- si, qui te ex-|pec- tant, non _|
!<(! G,2 F,2 E,2 D,2!<)! | ^C,>C, C,2 z2!f! C,C, | D,2 B,,2 C,2 C,C, | D,2 D,2 z D,C,B,, | %54
w: con- fun- den- tur,|Do- mi- ne, vi- as|tu- a no- tas fac|mi- hi et se- mi-|
 C,4 C2 C,C, | F,3 F, F,2 z2 |!mf! A,2 A,>A, A,2 G,2 | ^F,7/2 F,/ F,2!f! C2 | B,7/2 B,/ B,2 A,2 | %59
w: tas tu- as e-|do- ce me.|Os- ten- de no- bis|Do- mi- ne, os-|ten- de no- bis|
 ^G,7/2 G,/ G,4 |!>(! =G,2 G,>G, G,2!>)!!p! G,2 | F,3 F, F,2 _E,2 | (D,4 ^C,2) =C,2 | B,,6 G,,2 | %64
w: Do- mi- ne|mi- se- ri- cor- di-|am, mi- se- ri-|cor- * di-|am tu-|
 A,,2 z2 z2 z!f! G, | !tenuto!F,2 !tenuto!E,2 D,2 A,2 | B,2 ^F,2 G,2 G,,2 |!p! A,,2 A,,A,, A,,4 | %68
w: am, et|sa- lu- ta- re,|sa- lu- ta- re|tu- um da no-|
 D,2 z2 z2!f! D,>D, | G,2 F,2 z2 F,>D, | E,2 F,2 z2 C,>C, | (B,,3 =B,, C,4) | %72
w: bis. Al- le-|lu- ja, al- le-|lu- ja, al- le-|lu- * *|
 F,,2!f! F,>C, A,2 F,2 | z2 A,>F, (D2 C2 | B,2 !>!A,G,) ^F,2 D>C | (=B,2 !>!_B,A,) ^G,2 | %76
w: ja, al- le- lu- ja,|al- le- lu- *|* * * ja, al- le-|lu- * * ja,|
!ff! =G,>G, | (^F,2 =F,2) E,2 A,>A, | (D,2 D2 ^C2 =C2 | =B,A,) G,^F, E,4 | A,4 A,,4 | %81
w: al- le-|lu- * ja, al- le-|lu- * * *|* * ja, * al-|le- lu-|
 !fermata!D,6 |][K:A][M:3/4]!p! E,2 | C,4 F,2 | D,2 B,,4 | z2 z2 G,,2 | (A,,2 C,2) F,2 | %87
w: ja.|Ad|te le-|va- vi,|a|te, _ ad|
 (D,2 B,,2) E,2 | (C,2 E,2)!<(! A,2 | A,3!<)! A,!>(! G,2 | A,2 A,,2!>)! z2 |!p! C,4 C,2 | %92
w: |||||
 D,2 D,2 z D, | (C,2 E,2) A,2 | .A,2 .E,2 z2 | =F,4 F,F, | .E,2 .E,2!f! B,2- | B,2 A,=G, =F,E, | %98
w: ||||* * non|_ e- * ru- *|
 .D,2 .E,2 z2 | z6 | z6 |!p! =C,2 C,2 C,2 | !>!=F,3 F, F,2 | =G,6 | z2!<(! =CA, =G,E,!<)! | %105
w: bes- cam;||||||in- i- mi- ci|
 =C,2 E,4- | E,2!f! E,2 E,E, | ^D,>B,, B,,2 z2 | z2!ff! G,2 E,E, | C,2 C2 =C2 | (B,2 F,2) G,E, | %111
w: me- i,|_ ne- que ir-|ri- de- ant,|ne- que ir-|ri- de- ant|me _ in- i-|
 (B,,2 E,2) G,,2 | B,,6 | E,6 | z2 z2!p! F,2 | D,4 D,2 |!<(! C,>C, E,2 A,2!<)! |!f! A,2 A,2 G,2 | %118
w: mi- * ci|me-|i.|||||
 .A,2 .A,,2 z2 |!p! C,4 C,C, | .D,2 .D,2 z2 | C,4 A,,A,, | .E,2 .E,2 | z!f! E, | (D,2 C,2) z B, | %125
w: |||non con- fun-|den- tur|ad|te, _ ad|
 (^A,2 =A,4-) | A,4 z !>!A, | !>!A,2 !>!A,2 !>!A,2 | E,4 E,2 | z2 E,3 E, | E,6 | (E,4 E,,2) | %132
w: te _|_ le-|va- vi, le-|va- vi|a- ni-|mam|me- *|
 A,,2!f! A,2 =G,2 | F,2 (C,2 D,2) | A,,2 A,2 =G,2 | F,2 (E,2 D,2) | !fermata!A,,4 |] %137
w: am, a- ni-|mam me- *|am, a- ni-|mam me- *|am.|
[K:Eb][M:2/2]!p! E,2 | E,4 E,4 | !>!D,3 D, E,4 | z2 E,2 A,2 G,2 | F,4 E,4 | B,4 A,4 | %143
w: ||||||
!<(! G,2 E,2 C,2 D,2!<)! | E,4 D,4 | G,4!f! B,2 B,2 | A,4 B,4 | G,2 G,2 E,2 E,2 | (F,4 B,,4) | %149
w: ||||||
 =B,,4!p! (G,2 F,2) | E,2 D,2 C,3 E, |"^cresc." G,4 G,2 F,2 | E,2 E,2 C,4 | G,4!f! G,2 G,2 | %154
w: |||||
 G,,4 A,,4 | (B,,4 A,3) A, |"^dim." G,8- | G,4!p! F,2 E,2 | D,4 G,,4 | A,,4 B,,4 | E,6 z2 | z8 | %162
w: ||||||||
 z8 | z8 | z4!f! D,3 D, | (E,4 G,,4) | A,,4 (C,4 | F,3) E, (D,4 | E,2 G,2) B,2 z2 | z8 | %170
w: ||Al- le-|lu- *|ja, al-|* le- lu-|* * ja,||
 z4 z2!f! A,2 | F,2 A,2 A,3 A, | B,6 B,2 | G,4 C4 | F,3 B, B,4 | z2!ff! (B,2 G,2) E,2 | C,4 D,4 | %177
w: in|do- mum Do- mi-|ni, in|do- mum|Do- mi- ni,|al- * le-|lu- ja,|
 E,3 F, (G,2 G,,2) | A,,6 A,2 | D,3 E, F,2 G,2 | A,8- | A,2 A,,2 A,3 A, | =A,3 C C4- | C4 (=A,4 | %184
w: al- le- lu- *|ja, lae-|ta- tus sum in|his,|_ lae- ta- tus|sum in his,|_ al-|
 B,4) =B,4 | C4 G,4 | (A,4 E,2) =E,2 | F,4 B,,4 | E,4 G,,4 | A,,2 (C,2 E,2) A,2 | (C4 A,4) | %191
w: * le-|lu- ja,|al- * le-|lu- *||ja, al- * le-|lu- *|
 !fermata!E,8 |][K:Bb][M:4/4]!p! G,4 D,4 | G,,G,, G,2 D,3 D, |!<(! G,3 G, F,2 E,2!<)! | %195
w: ja.||* * * * vi-|vi- fi- ca- bis|
!>(! D,4!>)!!f! D,2 C2 | B,2 ^F,2 G,2 =F,2 | E,2 G,G, C,3 C, | C,6 ^C,2 | D,3 z!p! (D,2 A,,2) | %200
w: nos et plebs|tu- a, et plebs|tu- a lae- ta- bi-|tur in|te. Os- *|
 B,,4 B,,4 | z2!mf! E,2 D,2 C,2 | B,,4 B,,4 | z2 (B,2 A,2) G,2 | ^F,4 z4 | z4 z2!f! D,>=F, | %206
w: ten- de,|os- ten- de|no- bis|Do- * mi-|ne,|mi- *|
 E,2 E,2 E,2 =E,E, | F,4 F,,4 | z4 z2!p! F,,2 | (F,2 B,,4) A,,2 | D,4"^cresc." C,4 | B,,2 B,4 A,2 | %212
w: se- ri- cor- di- am|tu- am,|et|sa- * lu-|ta- re|tu- um da|
!f! B,4 B,2 B,2 | !tenuto!A,2 !tenuto!A,2 z4 | ^C,3 ^C C4 | =C3 =C, C,2!p! =B,,2 | %216
w: no- bis, da|no- bis|Do- mi- ne,|Do- mi- ne, os-|
 (_B,,4 A,,2) G,,2 | ^F,,2 F,,2 z2 D,C, | B,,2 B,,2 A,,2 G,,G,, | .^F,,2 .F,,2 !fermata!z2 z2 | %220
w: ten- * de|no- bis mi- *|se- ri- cor- di- am|tu- am.|
!pp! G,,4 D,4 | G,G, G,2 D,3 D, |!<(! G,3 G, F,2 E,2!<)! | D,6 z2 | z4!f! B,,2 _A,2 | G,4 E,2 E,2 | %226
w: |* * * tens vi-|vi- fi- ca- bis|nos|et plebs|tu- a lae-|
 D,3 D, D,2 C2 | B,4 z2 E,2 | B,,2 C,2 D,2 !>!^F,2 | (!>!G,2 =F,E,) D,C,!p! B,,C, | %230
w: ta- bi- tur in|te, lae-|ta- bi- tur, plebs|tu- * * a _ lae- *|
 D,3 D, D,2 D,2 | G,4 z2!pp! C,2 | D,3 D, D,2 D,2 | !fermata!G,,8 |][K:C][M:2/2]!f! C,2 | %235
w: ta- bi- tur in|te, lae-|ta- bi- tur in|te.||
 !tenuto!C4 !tenuto!E,4 | F,3 F, D,4 | z2 D,4 E,2 | A,3 G, G,4- | G,4 z4 | z8 |!p! E,3 E, E,2 D,2 | %242
w: |||||||
"^cresc." ^C,3 C, C,4 | D,4 D,2 E,2 | (^F,2 A,2) C2!f! C2 | B,4 (G,2 B,2) | A,3 D, D,2 C2 | %247
w: |||||
 B,4 G,2 E,2 | C,4 C2 C2 | (B,2 G,2) E,2 C,2 | D,8 | G,,6 z2 |!p! G,6 G,2 | =F,6 F,2 | _E,6 E,2 | %255
w: ||||||||
 D,4 D,4 |!f! C4 C,4 | _B,,4 _B,4 |!p! _A,3 A, A,2 D,2 | !tenuto!G,4 !tenuto!G,4 | z8 | %261
w: |qui de-|du- cis|ve- lut o- vem|Jo- seph.||
 z2!f! (G,2 _A,2) _B,2 | (C2 _B,2) _A,2 (G,2 | _A,2 G,2 F,2) _E,2 | (D,2 F,2) _B,4 | %265
w: Al- * le-|lu- * ja, al-|* * * le-|lu- * ja,|
 z2 (F,2 _B,2) _A,2 | (G,2 F,2 _E,2 G,2 | F,2 _E,2) D,2 (F,2 | _E,2) D,2 C,4 | G,,4 | z2!ff! G,2 | %271
w: al- * le-|lu- * * *|* * ja, al-|* le- lu-|ja.|Ex-|
 (C2 B,2) A,2 G,2 | F,2 E,2 D,2 C,2 | B,,4 (C,2 A,2) | G,3 G, G,2!p! G,2 | F,3 F, F,4 | %276
w: ci- * ta, ex-|ci- ta Do- mi-|ne po- *|ten- ti- am, po-|ten- ti- am|
 E,4 A,2 A,2 |!<(! D,4 G,4!<)! | C,4 C2 z2 | z4 z2!f! B,2 | C3 G, E,4 | (D,4 G,4) | C,4 z2 C2 | %283
w: tu- am et|ve- ni,|ve- ni,|po-|ten- ti- am|tu- *|am, al-|
 ^G,4 E,4 | A,6 A,2 | =G,4 C,4 | F,6 | z2 | z4 z2!p! F,2 | _E,4 E,4- | E,2 z2 z2!<(! (_E,2 | %291
w: le- lu-|ja, al-|le- lu-|ja;||||* fa-|
 D,3) D, D,4!<)! |!ff! G,,2 (G,2 A,2) B,2 | (C2 G,2) E,2 (A,2 | G,4) _A,4 | (G,4 G,,4) | %296
w: * ci- as|nos. Al- * le-|lu- * ja, al-|* le-|lu- *|
 !fermata!C,6 |][K:F][M:3/2]!f! F,4 B,4 A,4 | D,12 | !fermata!C,8 !fermata!z4 | %300
w: ja.||||
!p!"^dolce" C,4 D,4 C,4 | F,8 E,4 | (D,8 C,4 | B,,8) A,,4 | G,,4 z4 z4 | z4!f! C,4 B,4 | %306
w: be- ne- di-|xi- sti,|Do- *|* mi-|ne,|ter- ram|
 A,4 F,4 A,4- | (A,4 G,2 F,2) (E,2 D,2) | !tenuto!^C,4 !tenuto!C,4 z4 |!p! =C,8 C,4 | B,,8 B,,4 | %311
w: tu- am, ter-|* * * ram *|tu- am,|a- ver-|ti- sti|
!<(! B,4 A,4 G,4 | _G,4 F,8!<)! |!f! B,,8 D,4 | _E,8 F,4 | B,8 D,4 | _E,8 F,4 | B,,4 z4 z4 | %318
w: ||Ja- *||||cob,|
 z4!f! G,4 F,4 | _E,8 =B,,4 | C,4 C,4 D,4 | _E,8 D,4 |"^dim." C,12 | D,4!pp! D4 C4 | %324
w: a- ver-|ti- sti|cap- ti- vi-|ta- tem|Ja-|cob, re- mi-|
 (B,6 A,2) G,4 | ^F,4 F,6 F,2 | G,8"^cresc." G,4 | ^F,4 F,4 =F,4 | =E,8 G,4 | %329
w: si- * sti|in- i- qui-|ta- tem,|in- i- qui-|ta- tem|
!f! (_A,6 G,2) (F,2 _E,2) | _D,12 |"^dim." (C,8 B,,4) |!p! (=A,,8 G,,4) | F,,8 A,,4 | D,8 C,4 | %335
w: ple- * bis _|tu-|ae. _|_ _|||
 B,,8 B,4 | F,4!mf! A,4 A,,4 | (B,,4 =B,,4 C,4) | D,4 G,4 F,4 | (E,4"^cresc." _E,4 D,4) | %340
w: ||||tu- * *|
 C,4!f! C4 C,4 | B,,4 B,4 z4 | B,,4 B,,4 =B,,4 | (C,4 F,4) A,4 | C4 C,4 z4 |!>(! D,4 C,4 B,,4!>)! | %346
w: am, a- ver-|ti- sti|cap- ti- vi-|ta- * tem|Ja- cob.|Be- ne- di-|
 A,,4 F,4 z4 |!p! B,,8 =B,,4 | C,4 C,8 |!f! (D,6 E,2) F,2 A,2 | ^C4 (D4 =C4) | B,8 (B,,2 =B,,2) | %352
w: xi- sti|ter- ram|tu- am,|be- * ne- di-|xi- sti _|ter- ram, _|
 C,8 C,4 | !fermata!F,,12 |][K:E][M:4/4]!p! E,2 B,,4 G,,2 | B,,3 A, A,2 A,G, | F,2 F,E, D,2 C,D, | %357
w: Do- mi-|ne.||||
 E,2 B,,2 z2 B,A, | G,2 G,A, F,2 G,F, | (E,D, C,2) D,2!mf! B,A, | G,2 A,G, F,2 G,F, | %361
w: e- um, om- ni-|bus qui in- vo- cant _|e- * * um, * *||
 E,D, C,2 D,4 |!pp! (E,2 B,,4) G,,2 | B,,3 A, A,2 A,G, |!<(! F,2 F,E, D,2!<)! C,D, | %365
w: |lau- * dem||* tur, lo- que- tur os|
!>(! E,2!>)! B,,4 B,,2 | =C,3 C, C,2 C,2 | B,,3 B,, =C,2 E,2 | =G,3 G, !>!=C2 !>!A,2 | %369
w: me- um, et|be- ne- di- cat|||
 !>!B,2 !>!B,,2 z2!f! B,A, | (G,2 F,2) E,2 D,A, | (G,2 F,2) E,2 (D,2 | C,2 F,2 B,,2) E,2 | %373
w: * * Al- le-|lu- * ja, al- le-|lu- * ja, al-|* * * le-|
 (A,,2 A,2) G,2!f! G,G, | C,>D, E,2!p! F,2 F,F, | A,2 G,,2 A,,2 z!f! A, | G,B,A,G, F,>F, F,2 | %377
w: lu- * ja. * *||||
!p! ^B,,B,,C,C, G,,>G,, G,,2- | G,,2 z2 z4 |!pp! E,2 B,,4 G,,2 | B,,3 A, A,2 A,G, | %381
w: ||||
 F,2 F,E, D,2 C,D, | E,2 B,,2 z2 B,A, | G,2 G,A, F,2 G,F, | (E,D, C,2) D,2!f! B,A, | %385
w: |e- um, om- ni-|bus qui in- vo- cant _|e- * * um, * *|
 G,2 A,G, F,A,G,F, | E,D, C,2 B,,2!ff! B,>B, | (B,2 ^A,2 =A,2 F,2) | G,2 (G,,2 A,,2) F,,2 | B,,8 | %390
w: |* * * * al- le-|lu- * * *|ja, al- * le-|lu-|
 !fermata!E,,8 |][K:C][M:3/4] z6 |!p! E,2 A,3 A, | G,2 E,4 |!<(! G,2 C3!<)!!f! C | B,2 A,2 (G,2 | %396
w: ja.||A- ve Ma-|ri- a,|a- ve Ma-|ri- a, gra-|
 F,3) E, D,2 |!p! E,2 E,4 | z2!f! E,>^D, E,2 | F,2 =D,4 | z2 C,>B,, C,2 | D,2 G,,4 | %402
w: * ti- a|ple- na,|Do- mi- nus|te- cum,|Do- mi- nus|te- cum,|
 z2!p!!<(! C,_B, B,!<)!A, |!>(! A,>G, G,3!>)! F, | F,>E, E,2 D,2 | C,2"^cresc." C,2 _B,,2 | %406
w: be- * ne- *|dic- ta tu in|mu- li- e- ri-|bus, be- ne-|
 A,,>A,, A,,2 z!f! A,, | _B,,>B,, B,,2 A,,2 | G,,4 ^F,,2 | (G,,2 G,3) G, | %410
w: dic- ta tu et|be- ne- dic- tus|fruc- tus|ven- * tris|
 !>!^G,2 !>!G,2 !fermata!z2 | z6 |!pp! E,2 A,3 A, | G,2"^cresc." E,4 | (G,2 C3) C | %415
w: tu- i.||Sanc- ta Ma-|ri- a,|ma- * ter|
!f! B,2 A,2 (G,2 | F,3) E, D,2 | !tenuto!D,2 !tenuto!C,2!f! C,>C, | B,,>B,, B,,3 z | %419
w: De- i, o-|* ra pro|no- bis pec- ca-|to- ri- bus|
!pp! A,2 A,2 A,2 | ^G,4 G,=G, |!<(! G,2 G,2 G,2!<)! |!f! F,4 F,2 |!>(! C,4 D,2!>)! |!p! E,6 | %425
w: nunc et in|ho- ra, _|nunc et in|ho- ra|mor- tis|nos-|
 A,,4 z2 | z6 | z2!f! F,2 ^C,2 | D,6 | !fermata!A,,6 |] %430
w: trae.||A- men,|a-|men.|

